assets/icons/uEA17-house.svg

<svg xmlns="http://www.w3.org/2000/svg" viewBox="0 0 171.587 171.587"><path d="M152.17 171.587H19.42c-1.382 0-2.5-1.12-2.5-2.5V84.562H2.824c-1.02 0-1.938-.62-2.32-1.567-.38-.947-.146-2.03.59-2.737L84.064.696c.966-.928 2.493-.928 3.46 0l82.97 79.562c.735.706.97 1.79.59 2.737-.383.947-1.3 1.567-2.32 1.567H154.67v84.525c0 1.38-1.12 2.5-2.5 2.5zm-36.494-5h33.993v-37.545h-34v37.545zm-64.25 0h59.25v-37.545h-59.25v37.545zm-14 0h9v-2.874h-9v2.874zm-15.507 0h10.5v-37.545h-10.5v37.545zm15.5-7.874h9v-4.188h-9v4.188zm0-9.187h9v-4.188h-9v4.188zm0-9.188h9v-4.188h-9v4.188zm0-9.187h9v-2.1h-9v2.11zm75.75-7.1h36.49V84.57H105.5v39.48h7.667zm-21.67 0h9v-3h-9v3zm-24.84 0H86.5V84.57H66.67v39.48zm-17.75 0h12.75V84.57H21.92v39.48h27.006zm42.582-8h9v-4.66h-9v4.668zm0-9.66h9v-4.666h-9v4.667zm0-9.666h9v-4.67h-9v4.67zm0-9.666h9v-2.48h-9v2.48zm60.66-7.48h10.374L135.67 53.8v25.764h16.493zm-49.16 0h27.666V49.13c0-.04 0-.08.003-.117L106.4 25.738H65.17l-25.493 24.45v29.375h63.333zm-83.59 0h15.26V54.99L9.04 79.563h10.38zm50.973-58.83h30.8l-15.4-14.77-15.4 14.77z" fill="#000002"/></svg>

<?xml version="1.0" encoding="iso-8859-1"?>
<!-- Generator: Adobe Illustrator 17.1.0, SVG Export Plug-In . SVG Version: 6.00 Build 0)  -->
<!DOCTYPE svg PUBLIC "-//W3C//DTD SVG 1.1//EN" "http://www.w3.org/Graphics/SVG/1.1/DTD/svg11.dtd">
<svg version="1.1" id="Capa_1" xmlns="http://www.w3.org/2000/svg" xmlns:xlink="http://www.w3.org/1999/xlink" x="0px" y="0px"
	 viewBox="0 0 171.587 171.587" style="enable-background:new 0 0 171.587 171.587;" xml:space="preserve">
<path style="fill:#000002;" d="M152.169,171.587H19.419c-1.381,0-2.5-1.119-2.5-2.5V84.562H2.825c-1.021,0-1.938-0.621-2.319-1.567
	c-0.381-0.947-0.147-2.031,0.589-2.737L84.063,0.696c0.967-0.928,2.494-0.928,3.461,0l82.969,79.562
	c0.736,0.706,0.97,1.79,0.589,2.737c-0.381,0.947-1.299,1.567-2.319,1.567h-14.094v84.525
	C154.669,170.468,153.55,171.587,152.169,171.587z M115.676,166.587h33.993v-37.545h-33.993V166.587z M51.426,166.587h59.25v-37.545
	h-59.25V166.587z M37.426,166.587h9v-2.874h-9V166.587z M21.919,166.587h10.507v-37.545H21.919V166.587z M37.426,158.713h9v-4.188
	h-9V158.713z M37.426,149.526h9v-4.188h-9V149.526z M37.426,140.338h9v-4.188h-9V140.338z M37.426,131.151h9v-2.109h-9V131.151z
	 M113.176,124.042h36.493v-39.48h-44.16v39.48H113.176z M91.509,124.042h9v-3h-9V124.042z M66.676,124.042h19.833v-39.48H66.676
	V124.042z M48.926,124.042h12.75v-39.48H21.919v39.48H48.926z M91.509,116.042h9v-4.667h-9V116.042z M91.509,106.375h9v-4.667h-9
	V106.375z M91.509,96.708h9v-4.667h-9V96.708z M91.509,87.042h9v-2.48h-9V87.042z M152.169,79.562h10.375l-26.868-25.765v25.765
	H152.169z M103.009,79.562h27.667V49.123c0-0.04,0.001-0.079,0.003-0.117l-24.271-23.274H65.179L39.676,50.188v29.374H103.009z
	 M19.419,79.562h15.257V54.983L9.044,79.562H19.419z M70.393,20.731h30.801l-15.4-14.768L70.393,20.731z"/>
<g>
</g>
<g>
</g>
<g>
</g>
<g>
</g>
<g>
</g>
<g>
</g>
<g>
</g>
<g>
</g>
<g>
</g>
<g>
</g>
<g>
</g>
<g>
</g>
<g>
</g>
<g>
</g>
<g>
</g>
</svg>
